packages/kaspersky-hexa-ui-icons/src/iconsSVGs/24/Screenshot.svg

<svg width="24" height="24" viewBox="0 0 24 24" fill="none" xmlns="http://www.w3.org/2000/svg">
<path d="M6 3C4.34315 3 3 4.34315 3 6V8C3 8.55228 3.44772 9 4 9C4.55228 9 5 8.55228 5 8V6C5 5.44772 5.44772 5 6 5H8C8.55228 5 9 4.55228 9 4C9 3.44772 8.55228 3 8 3H6Z" fill="black"/>
<path d="M16 3C15.4477 3 15 3.44772 15 4C15 4.55228 15.4477 5 16 5H18C18.5523 5 19 5.44772 19 6V8C19 8.55228 19.4477 9 20 9C20.5523 9 21 8.55228 21 8V6C21 4.34315 19.6569 3 18 3H16Z" fill="black"/>
<path d="M5 16C5 15.4477 4.55228 15 4 15C3.44772 15 3 15.4477 3 16V18C3 19.6569 4.34315 21 6 21H8C8.55228 21 9 20.5523 9 20C9 19.4477 8.55228 19 8 19H6C5.44772 19 5 18.5523 5 18V16Z" fill="black"/>
<path d="M21 16C21 15.4477 20.5523 15 20 15C19.4477 15 19 15.4477 19 16V18C19 18.5523 18.5523 19 18 19H16C15.4477 19 15 19.4477 15 20C15 20.5523 15.4477 21 16 21H18C19.6569 21 21 19.6569 21 18V16Z" fill="black"/>
<path fill-rule="evenodd" clip-rule="evenodd" d="M12 9C10.3431 9 9 10.3431 9 12C9 13.6569 10.3431 15 12 15C13.6569 15 15 13.6569 15 12C15 10.3431 13.6569 9 12 9ZM11 12C11 11.4477 11.4477 11 12 11C12.5523 11 13 11.4477 13 12C13 12.5523 12.5523 13 12 13C11.4477 13 11 12.5523 11 12Z" fill="black"/>
</svg>

<svg xmlns="http://www.w3.org/2000/svg" width="24" height="24" fill="none" viewBox="0 0 24 24"><path fill="#000" fill-rule="evenodd" d="M3 6c0-1.6569 1.3431-3 3-3h2c.5523 0 1 .4477 1 1s-.4477 1-1 1H6c-.5523 0-1 .4477-1 1v2c0 .5523-.4477 1-1 1s-1-.4477-1-1zm12-2c0-.5523.4477-1 1-1h2c1.6569 0 3 1.3431 3 3v2c0 .5523-.4477 1-1 1s-1-.4477-1-1V6c0-.5523-.4477-1-1-1h-2c-.5523 0-1-.4477-1-1m-3 5c-1.6569 0-3 1.3431-3 3s1.3431 3 3 3 3-1.3431 3-3-1.3431-3-3-3m-1 3c0-.5523.4477-1 1-1s1 .4477 1 1-.4477 1-1 1-1-.4477-1-1m-6 4c0-.5523-.4477-1-1-1s-1 .4477-1 1v2c0 1.6569 1.3431 3 3 3h2c.5523 0 1-.4477 1-1s-.4477-1-1-1H6c-.5523 0-1-.4477-1-1zm16 0c0-.5523-.4477-1-1-1s-1 .4477-1 1v2c0 .5523-.4477 1-1 1h-2c-.5523 0-1 .4477-1 1s.4477 1 1 1h2c1.6569 0 3-1.3431 3-3z"/></svg>
